svg/free/spa.svg

<svg version="1.1" xmlns="http://www.w3.org/2000/svg" width="24" height="24" viewBox="0 0 24 24">
<title>spa</title>
<path d="M17.953 11.136c-0.328-3.497-2.137-6.516-4.785-8.457l-0.033-0.023-1.338-0.969-1.253 0.975c-2.566 2.008-4.267 5.019-4.511 8.433l-0.002 0.038c-0.46-0.091-0.989-0.143-1.53-0.143-0 0-0 0-0.001 0h-3.75v3.073c0 4.549 3.701 8.25 8.25 8.25h6c4.549 0 8.25-3.701 8.25-8.25v-3.073h-3.75c-0 0-0 0-0 0-0.547 0-1.082 0.053-1.599 0.155l0.052-0.009zM11.464 3.846l0.364-0.283 0.426 0.308c2.417 1.77 4.023 4.524 4.225 7.661l0.002 0.030c-1.997 0.806-3.573 2.305-4.459 4.192l-0.021 0.051c-0.909-1.942-2.49-3.443-4.436-4.227l-0.056-0.020c0.113-3.138 1.628-5.9 3.933-7.695l0.023-0.017zM11.25 20.813h-2.25c-3.722 0-6.75-3.028-6.75-6.75v-1.573h2.25c3.722 0 6.75 3.028 6.75 6.75zM21.75 14.063c0 3.722-3.028 6.75-6.75 6.75h-2.25v-1.573c0-3.722 3.028-6.75 6.75-6.75h2.25z"></path>
</svg>

<svg xmlns="http://www.w3.org/2000/svg" width="24" height="24" viewBox="0 0 24 24"><path d="M17.953 11.136a11.818 11.818 0 00-4.785-8.457l-.033-.023-1.338-.969-1.253.975C7.978 4.67 6.277 7.681 6.033 11.095l-.002.038a8.029 8.029 0 00-1.53-.143H.75v3.073c0 4.549 3.701 8.25 8.25 8.25h6c4.549 0 8.25-3.701 8.25-8.25V10.99H19.5c-.547 0-1.082.053-1.599.155l.052-.009zm-6.489-7.29l.364-.283.426.308c2.417 1.77 4.023 4.524 4.225 7.661l.002.03a8.352 8.352 0 00-4.459 4.192l-.021.051a8.346 8.346 0 00-4.436-4.227l-.056-.02a10.19 10.19 0 013.933-7.695l.023-.017zm-.214 16.967H9a6.758 6.758 0 01-6.75-6.75V12.49H4.5a6.758 6.758 0 016.75 6.75zm10.5-6.75a6.758 6.758 0 01-6.75 6.75h-2.25V19.24a6.758 6.758 0 016.75-6.75h2.25z"/></svg>
